Origami/64x64/apps/wine.svg

<svg width="64" height="64" version="1" xmlns="http://www.w3.org/2000/svg">
 <rect transform="matrix(0,-1,-1,0,0,0)" x="-60" y="-60" width="56" height="56" rx="3" ry="3" style="fill:#4f4f4f"/>
 <path d="m7 4c-1.662 0-3 1.338-3 3v1c0-1.662 1.338-3 3-3h50c1.662 0 3 1.338 3 3v-1c0-1.662-1.338-3-3-3h-50z" style="fill:#ffffff;opacity:.1"/>
 <g transform="matrix(1.9999364,0,0,2,9.181526e-4,1.0006)" style="opacity:.2">
  <path d="m5.7143 5h8.5714c0.395 0 0.714 0.3186 0.714 0.7143v8.5714c0 0.395-0.319 0.714-0.714 0.714h-8.5717c-0.3957 0-0.7143-0.319-0.7143-0.714v-8.5717c0-0.3957 0.3186-0.7143 0.7143-0.7143z"/>
  <path d="m17.714 5h8.5714c0.396 0 0.715 0.3186 0.715 0.7143v8.5714c0 0.395-0.319 0.714-0.714 0.714h-8.5714c-0.396 0-0.715-0.319-0.715-0.714v-8.5714c0-0.39571 0.31857-0.71429 0.71429-0.71429z"/>
 </g>
 <path d="m11.4292 10.0006h17.1428c0.79 0 1.428 0.6372 1.428 1.4286v17.1428c0 0.79-0.638 1.428-1.428 1.428h-17.1434c-0.7914 0-1.4286-0.638-1.4286-1.428v-17.1434c0-0.7914 0.6372-1.4286 1.4286-1.4286z" style="fill:#48aeff"/>
 <path d="m35.427943 10h17.142114c0.791969 0 1.429943 0.637219 1.429943 1.428643v17.143314c0 0.790024-0.637974 1.428043-1.427943 1.428043h-17.142114c-0.791969 0-1.429943-0.638019-1.429943-1.428043v-17.143314c0-0.791444 0.637115-1.428623 1.428523-1.428623z" style="fill:#48aeff"/>
 <g transform="matrix(1.9999364,0,0,2,9.181526e-4,25.0006)" style="opacity:.2">
  <path d="m5.7143 5h8.5714c0.395 0 0.714 0.3186 0.714 0.7143v8.5714c0 0.395-0.319 0.714-0.714 0.714h-8.5717c-0.3957 0-0.7143-0.319-0.7143-0.714v-8.5717c0-0.3957 0.3186-0.7143 0.7143-0.7143z"/>
  <path d="m17.714 5h8.5714c0.396 0 0.715 0.3186 0.715 0.7143v8.5714c0 0.395-0.319 0.714-0.714 0.714h-8.5714c-0.396 0-0.715-0.319-0.715-0.714v-8.5714c0-0.39571 0.31857-0.71429 0.71429-0.71429z"/>
 </g>
 <path d="m11.4292 34.0006h17.1428c0.79 0 1.428 0.6372 1.428 1.4286v17.1428c0 0.79-0.638 1.428-1.428 1.428h-17.1434c-0.7914 0-1.4286-0.638-1.4286-1.428v-17.1434c0-0.7914 0.6372-1.4286 1.4286-1.4286z" style="fill:#48aeff"/>
 <path d="m35.427943 34h17.142114c0.791969 0 1.429943 0.637219 1.429943 1.428643v17.143314c0 0.790024-0.637974 1.428043-1.427943 1.428043h-17.142114c-0.791969 0-1.429943-0.638019-1.429943-1.428043v-17.143314c0-0.791444 0.637115-1.428623 1.428523-1.428623z" style="fill:#48aeff"/>
 <path d="m4 57v1c0 1.662 1.338 3 3 3h50c1.662 0 3-1.338 3-3v-1c0 1.662-1.338 3-3 3h-50c-1.662 0-3-1.338-3-3z" style="opacity:.2"/>
</svg>

<svg xmlns="http://www.w3.org/2000/svg" width="64" height="64" version="1">
 <rect style="fill:#4f4f4f" width="56" height="56" x="-60" y="-60" rx="3" ry="3" transform="matrix(0,-1,-1,0,0,0)"/>
 <path style="opacity:0.1;fill:#ffffff" d="M 7 4 C 5.338 4 4 5.338 4 7 L 4 8 C 4 6.338 5.338 5 7 5 L 57 5 C 58.662 5 60 6.338 60 8 L 60 7 C 60 5.338 58.662 4 57 4 L 7 4 z"/>
 <g style="opacity:0.2" transform="matrix(1.9999364,0,0,2,9.181526e-4,1.0006)">
  <path d="m 5.7143,5 8.5714,0 c 0.395,0 0.714,0.3186 0.714,0.7143 l 0,8.5714 c 0,0.395 -0.319,0.714 -0.714,0.714 l -8.5717,0 c -0.3957,0 -0.7143,-0.319 -0.7143,-0.714 l 0,-8.5717 c 0,-0.3957 0.3186,-0.7143 0.7143,-0.7143 z"/>
  <path d="m 17.714,5 8.5714,0 c 0.396,0 0.715,0.3186 0.715,0.7143 l 0,8.5714 c 0,0.395 -0.319,0.714 -0.714,0.714 l -8.5714,0 c -0.396,0 -0.715,-0.319 -0.715,-0.714 l 0,-8.5714 c 0,-0.39571 0.31857,-0.71429 0.71429,-0.71429 z"/>
 </g>
 <path style="fill:#48aeff" d="m 11.4292,10.0006 17.1428,0 c 0.79,0 1.428,0.6372 1.428,1.4286 L 30,28.572 C 30,29.362 29.362,30 28.572,30 L 11.4286,30 C 10.6372,30 10,29.362 10,28.572 L 10,11.4286 C 10,10.6372 10.6372,10 11.4286,10 Z"/>
 <path style="fill:#48aeff" d="m 35.427943,10 17.142114,0 C 53.362026,10 54,10.637219 54,11.428643 l 0,17.143314 C 54,29.361981 53.362026,30 52.572057,30 L 35.429943,30 C 34.637974,30 34,29.361981 34,28.571957 l 0,-17.143314 c 0,-0.791444 0.637115,-1.428623 1.428523,-1.428623 z"/>
 <g style="opacity:0.2" transform="matrix(1.9999364,0,0,2,9.181526e-4,25.0006)">
  <path d="m 5.7143,5 8.5714,0 c 0.395,0 0.714,0.3186 0.714,0.7143 l 0,8.5714 c 0,0.395 -0.319,0.714 -0.714,0.714 l -8.5717,0 c -0.3957,0 -0.7143,-0.319 -0.7143,-0.714 l 0,-8.5717 c 0,-0.3957 0.3186,-0.7143 0.7143,-0.7143 z"/>
  <path d="m 17.714,5 8.5714,0 c 0.396,0 0.715,0.3186 0.715,0.7143 l 0,8.5714 c 0,0.395 -0.319,0.714 -0.714,0.714 l -8.5714,0 c -0.396,0 -0.715,-0.319 -0.715,-0.714 l 0,-8.5714 c 0,-0.39571 0.31857,-0.71429 0.71429,-0.71429 z"/>
 </g>
 <path style="fill:#48aeff" d="m 11.4292,34.0006 17.1428,0 c 0.79,0 1.428,0.6372 1.428,1.4286 L 30,52.572 C 30,53.362 29.362,54 28.572,54 L 11.4286,54 C 10.6372,54 10,53.362 10,52.572 L 10,35.4286 C 10,34.6372 10.6372,34 11.4286,34 Z"/>
 <path style="fill:#48aeff" d="m 35.427943,34 17.142114,0 C 53.362026,34 54,34.637219 54,35.428643 l 0,17.143314 C 54,53.361981 53.362026,54 52.572057,54 L 35.429943,54 C 34.637974,54 34,53.361981 34,52.571957 l 0,-17.143314 c 0,-0.791444 0.637115,-1.428623 1.428523,-1.428623 z"/>
 <path style="opacity:0.2" d="m 4,57 0,1 c 0,1.662 1.338,3 3,3 l 50,0 c 1.662,0 3,-1.338 3,-3 l 0,-1 c 0,1.662 -1.338,3 -3,3 L 7,60 C 5.338,60 4,58.662 4,57 Z"/>
</svg>
